X: 11102
T: SIR WATKIN WILLIAM WYNNE
Q: "Slowish"
%R: waltz
B: "Edinburgh Repository of Music" v.1 p.110 #2
F: http://digital.nls.uk/special-collections-of-printed-music/pageturner.cfm?id=87776133
Z: 2015 John Chambers <jc:trillian.mit.edu>
M: 3/8
L: 1/16
K: G
D2 |\
(G2B2)d2 | (B2G2).B2 |\
(AB)(cA)(BG) | A2F2D2 |\
G>AB>GA>F | G2E2C2 |\
D2G2TF2 | G4 :|
|: D2 |\
TG2(B2d2) | g2d2B2 |\
(AB)(cd)(e^d) | (e2c2A2) |\
(GA).B.c.d.e | d2B2G2 |\
A2d2T^c2 | d4B=c |
(d2g2).d2 | B2G2B2 |\
(AB)(cA)(BG) |(A2F2)D2 |\
TG>AB>GA>F | G2E2C2 |\
D2G2F2 | G4 :|

%%sep 2 1 500
%%sep 1 1 500

